pages/main-page/img/books.svg

<svg width="48" height="43" viewBox="0 0 48 43" fill="none" xmlns="http://www.w3.org/2000/svg">
<path d="M29.0806 37.4477L28.9217 37.5431L28.6672 37.7339L28.4446 37.9565L28.2856 38.1792L28.1584 38.4653L28.063 38.7515L28.0312 39.1014V40.7232V40.755H28.0948L28.222 40.6596L45.9031 30.4517V29.4659V27.7168L29.0806 37.4477Z" fill="#FFDCA2"/>
<path d="M28.222 40.6605L28.0948 40.7559H28.0312L28.063 41.0103L28.1584 41.2011L28.2856 41.3283L28.4446 41.3601H28.6672L28.9217 41.2329L29.0806 41.1375L47.5885 30.4526L45.9031 29.4668V30.4526L28.222 40.6605Z" fill="#FF5100"/>
<path d="M47.5889 25.7765L21.0991 10.4805L2.59131 21.1654L29.081 36.4614L47.5889 25.7765ZM8.7606 21.7696L21.4808 14.4873L34.2009 21.7696L21.4808 29.0519L8.7606 21.7696Z" fill="#FF5100"/>
<path d="M28.9214 41.2301L28.6669 41.3573H28.4443L28.2853 41.3255L28.1581 41.1983L28.0627 41.0075L28.031 40.7531V40.7213V39.0995L28.0627 38.7497L28.1581 38.4635L28.2853 38.1773L28.4443 37.9547L28.6669 37.732L28.9214 37.5413L29.0804 37.4459L45.9028 27.7149L47.5882 26.761V25.7752L29.0804 36.4601L2.59066 21.1641L2.36803 21.2913L1.95461 21.6093L1.54119 22.0545L1.19144 22.5633L0.936978 23.1039L0.746183 23.6763L0.682617 24.2169V25.966L0.746183 26.4429L0.936978 26.8245L1.19144 27.0472L27.6811 42.3431L28.031 42.4704L28.4443 42.4067L28.8577 42.2477L29.0804 42.1205L47.5882 31.4356V30.4498L29.0804 41.1347L28.9214 41.2301Z" fill="#D62200"/>
<path d="M21.3837 14.4863L8.66357 21.7686L21.3837 29.0509L34.1039 21.7686L21.3837 14.4863ZM11.5893 21.7686L21.3837 16.1081L31.1783 21.7686L21.3837 27.4291L11.5893 21.7686Z" fill="#D62200"/>
<path d="M21.3853 16.1094L11.5908 21.7698L21.3853 27.3985L31.1799 21.7698L21.3853 16.1094Z" fill="#FF5100"/>
<path d="M29.3663 27.4946L29.2073 27.59L28.9528 27.7808L28.7303 28.0034L28.5713 28.2579L28.444 28.5122L28.3486 28.7984L28.3169 29.1483V30.77V30.8337L28.3805 30.8019L28.5077 30.7065L46.1887 20.4986V19.5445V17.7637L29.3663 27.4946Z" fill="#FFDCA2"/>
<path d="M28.5077 30.7049L28.3805 30.8003L28.3169 30.8322L28.3486 31.0548L28.444 31.2456L28.7303 31.4046H28.9528L29.2073 31.2773L29.3663 31.2138L47.8741 20.497L46.1887 19.543V20.497L28.5077 30.7049Z" fill="#009999"/>
<path d="M47.874 15.8233L21.3842 0.527344L2.87646 11.2441L29.3662 26.5401L47.874 15.8233ZM9.04575 11.8165L21.7659 4.53418L34.4861 11.8165L21.7659 19.0988L9.04575 11.8165Z" fill="#009999"/>
<path d="M29.207 31.2803L28.9526 31.4075H28.7301L28.571 31.3757L28.4438 31.2486L28.3484 31.0578L28.3166 30.8352V30.7715V29.1497L28.3484 28.7999L28.4438 28.5137L28.571 28.2593L28.7301 28.0049L28.9526 27.7822L29.207 27.5915L29.366 27.4961L46.1884 17.7651L47.8739 16.8112V15.8254L29.366 26.5421L2.87631 11.2461L2.65368 11.3415L2.24026 11.6595L1.82684 12.1047L1.47708 12.6135L1.19089 13.1541L1.03183 13.7265L0.968262 14.2671V16.0162L1.03183 16.4931L1.19089 16.8747L1.47708 17.1292L27.9668 32.4252L28.3166 32.5206L28.7301 32.4887L29.1434 32.2979L29.366 32.1707L47.8739 21.4858V20.5L29.366 31.2167L29.207 31.2803Z" fill="#007A84"/>
<path d="M21.6713 4.5332L8.95117 11.8155L21.6713 19.0978L34.3915 11.8155L21.6713 4.5332ZM11.8768 11.8155L21.6713 6.18684L31.4658 11.8155L21.6713 17.476L11.8768 11.8155Z" fill="#007A84"/>
<path d="M21.671 6.1582L11.8765 11.8187L21.671 17.4791L31.4655 11.8187L21.671 6.1582Z" fill="#009999"/>
</svg>

<svg width="48" height="43" fill="none" xmlns="http://www.w3.org/2000/svg"><path d="m29.08 37.448-.158.095-.255.19-.222.224-.16.222-.127.286-.095.286-.032.35V40.755h.064l.127-.095 17.681-10.208V27.716l-16.822 9.732Z" fill="#FFDCA2"/><path d="m28.222 40.66-.127.096h-.064l.032.254.095.191.128.127.159.032h.222l.255-.127.159-.095 18.508-10.685-1.686-.986v.986L28.222 40.66ZM47.589 25.776 21.099 10.48 2.591 21.166l26.49 15.296 18.508-10.684ZM8.76 21.77l12.72-7.283L34.2 21.77l-12.72 7.282L8.76 21.77Z" fill="#FF5100"/><path d="m28.921 41.23-.254.127h-.223l-.159-.032-.127-.127-.095-.19-.032-.255V39.1l.032-.35.095-.286.127-.287.16-.222.222-.223.254-.19.16-.096 16.822-9.731 1.685-.954v-.986L29.08 36.46 2.59 21.164l-.222.127-.413.318-.414.445-.35.51-.254.54-.19.572-.064.54v1.75l.063.477.191.381.254.223 26.49 15.296.35.127.413-.063.414-.16.222-.127 18.508-10.684v-.986L29.08 41.135l-.159.095Z" fill="#D62200"/><path d="M21.384 14.486 8.664 21.77l12.72 7.282 12.72-7.282-12.72-7.283Zm-9.795 7.283 9.795-5.66 9.794 5.66-9.794 5.66-9.795-5.66Z" fill="#D62200"/><path d="m21.385 16.11-9.794 5.66 9.794 5.628 9.795-5.628-9.795-5.66Z" fill="#FF5100"/><path d="m29.366 27.495-.159.095-.254.19-.223.223-.159.255-.127.254-.095.286-.032.35V30.834l.064-.032.127-.096L46.188 20.5v-2.735l-16.822 9.73Z" fill="#FFDCA2"/><path d="m28.508 30.705-.127.095-.064.032.032.223.095.19.286.16h.223l.254-.128.16-.063 18.507-10.717-1.685-.954v.954L28.508 30.705ZM47.874 15.823 21.384.527 2.876 11.244l26.49 15.296 18.508-10.717ZM9.046 11.816l12.72-7.282 12.72 7.282-12.72 7.283-12.72-7.283Z" fill="#099"/><path d="m29.207 31.28-.254.127h-.223l-.159-.031-.127-.127-.096-.191-.031-.223V29.15l.031-.35.096-.286.127-.255.16-.254.222-.223.254-.19.159-.096 16.822-9.73 1.686-.955v-.986L29.366 26.542 2.876 11.246l-.222.095-.414.319-.413.445-.35.508-.286.541-.16.572-.063.541v1.75l.064.476.159.382.286.254 26.49 15.296.35.096.413-.032.413-.191.223-.127 18.508-10.685V20.5L29.366 31.217l-.159.063Z" fill="#007A84"/><path d="m21.671 4.533-12.72 7.282 12.72 7.283 12.72-7.282-12.72-7.283Zm-9.794 7.282 9.794-5.628 9.795 5.628-9.795 5.661-9.794-5.66Z" fill="#007A84"/><path d="m21.671 6.158-9.794 5.66 9.794 5.661 9.794-5.66-9.794-5.66Z" fill="#099"/></svg>
